src/assets/svg/logo.svg

<svg width="135" height="47" viewBox="0 0 135 47" fill="none" xmlns="http://www.w3.org/2000/svg">
<path d="M54.9587 37.5763L47.8338 12.2305H52.7522L57.3009 30.8562H57.5352L62.392 12.2305H66.8667L71.7358 30.8687H71.9577L76.5064 12.2305H81.4249L74.2999 37.5763H69.7881L64.7341 19.7922H64.5369L59.4704 37.5763H54.9587ZM88.5141 26.4381V37.5763H84.0517V12.2305H88.4154V21.7971H88.6373C89.0811 20.7245 89.7673 19.8789 90.6959 19.2601C91.6328 18.633 92.8244 18.3194 94.2707 18.3194C95.5857 18.3194 96.7321 18.5959 97.7099 19.1487C98.6879 19.7015 99.4441 20.51 99.9782 21.5744C100.521 22.6386 100.792 23.9381 100.792 25.4727V37.5763H96.3294V26.1658C96.3294 24.887 96.0007 23.8928 95.3432 23.1832C94.694 22.4654 93.7818 22.1066 92.6066 22.1066C91.8176 22.1066 91.111 22.2798 90.4864 22.6263C89.87 22.9646 89.3851 23.4555 89.0317 24.099C88.6866 24.7426 88.5141 25.5223 88.5141 26.4381ZM104.993 37.5763V18.567H109.456V37.5763H104.993ZM107.237 15.8691C106.53 15.8691 105.922 15.6339 105.412 15.1637C104.903 14.6851 104.648 14.1117 104.648 13.4434C104.648 12.7669 104.903 12.1935 105.412 11.7232C105.922 11.2446 106.53 11.0054 107.237 11.0054C107.952 11.0054 108.56 11.2446 109.061 11.7232C109.571 12.1935 109.826 12.7669 109.826 13.4434C109.826 14.1117 109.571 14.6851 109.061 15.1637C108.56 15.6339 107.952 15.8691 107.237 15.8691ZM113.697 37.5763V18.567H118.024V21.7353H118.221C118.567 20.6379 119.158 19.7922 119.996 19.1981C120.842 18.5959 121.808 18.2947 122.894 18.2947C123.14 18.2947 123.415 18.3071 123.719 18.3319C124.031 18.3484 124.29 18.3773 124.496 18.4185V22.5397C124.307 22.4737 124.007 22.4159 123.596 22.3664C123.193 22.3087 122.803 22.2798 122.424 22.2798C121.611 22.2798 120.879 22.4572 120.231 22.8119C119.589 23.1585 119.084 23.6412 118.714 24.2599C118.345 24.8787 118.16 25.5924 118.16 26.4009V37.5763H113.697ZM131.576 12.2305V37.5763H127.113V12.2305H131.576Z" fill="#2D2D2D"/>
<path fill-rule="evenodd" clip-rule="evenodd" d="M23.6005 7.13429C21.2227 6.14544 18.65 5.71903 16.0818 5.88803C13.5135 6.05703 11.0184 6.81692 8.78942 8.1089L6.54049 9.41248L3.94364 4.89679L6.19257 3.59322C9.11145 1.90133 12.3788 0.906241 15.7421 0.684931C19.1053 0.463621 22.4741 1.02202 25.5881 2.31694C28.7019 3.61186 31.4773 5.60858 33.6996 8.15265C35.9219 10.6967 37.5314 13.72 38.4038 16.9884C39.2761 20.2569 39.3878 23.6831 38.7303 27.0018C38.0727 30.3206 36.6636 33.443 34.6118 36.1275C32.56 38.8121 29.9206 40.9867 26.8978 42.4833C23.8749 43.98 19.976 44.7584 17.1792 44.7584C14.3825 44.7584 12.7496 44.3373 10.6049 43.4455C8.52069 42.5787 6.62688 41.3083 5.03165 39.7068C3.43641 38.1052 2.17102 36.2039 1.30768 34.1114C0.44435 32.0189 0 29.7761 0 27.5112C0 25.2462 0.444351 23.0036 1.30768 20.911C2.17102 18.8185 3.43641 16.9172 5.03165 15.3156C6.62688 13.7141 8.52069 12.4436 10.605 11.5769C12.6892 10.7101 14.9232 10.264 17.1791 10.264C19.4351 10.264 21.669 10.7101 23.7533 11.5769C25.8376 12.4436 27.7314 13.7141 29.3266 15.3156C30.9219 16.9172 32.1873 18.8185 33.0505 20.911C33.4219 21.8111 33.7157 22.7389 33.9301 23.6844C34.0349 21.8895 33.8531 20.0843 33.387 18.338C32.721 15.8421 31.4918 13.5334 29.7948 11.5906C28.0977 9.6479 25.9784 8.12314 23.6005 7.13429ZM6.80666 33.5402C7.10124 27.9345 11.7219 23.4802 17.3789 23.4802C22.8172 23.4802 27.2978 27.5969 27.8978 32.8955C28.0249 32.6403 28.1431 32.3804 28.2522 32.116C28.8545 30.6561 29.1646 29.0914 29.1646 27.5112C29.1646 25.931 28.8545 24.3663 28.2522 22.9064C27.6499 21.4465 26.767 20.12 25.6541 19.0026C24.5412 17.8853 23.2199 16.9989 21.7657 16.3943C20.3116 15.7895 18.753 15.4783 17.1791 15.4783C15.6051 15.4783 14.0466 15.7895 12.5925 16.3943C11.1384 16.9989 9.81709 17.8853 8.70414 19.0026C7.59119 20.12 6.70835 21.4465 6.10602 22.9064C5.5037 24.3663 5.19369 25.931 5.19369 27.5112C5.19369 29.0914 5.5037 30.6561 6.10602 32.116C6.30851 32.6067 6.54269 33.0824 6.80666 33.5402ZM22.7723 34.1093C22.7723 37.0998 20.3576 39.5242 17.3789 39.5242C14.4001 39.5242 11.9854 37.0998 11.9854 34.1093C11.9854 31.1188 14.4001 28.6945 17.3789 28.6945C20.3576 28.6945 22.7723 31.1188 22.7723 34.1093Z" fill="#006B99"/>
</svg>

<svg xmlns="http://www.w3.org/2000/svg" width="135" height="47" fill="none">
  <path fill="#2D2D2D" d="m54.96 37.58-7.13-25.35h4.92l4.55 18.63h.24l4.85-18.63h4.48l4.87 18.64h.22l4.55-18.64h4.91L74.3 37.58h-4.51l-5.06-17.79h-.2l-5.06 17.79h-4.51ZM88.5 26.44v11.14h-4.46V12.23h4.37v9.57h.22a5.5 5.5 0 0 1 2.06-2.54 6.3 6.3 0 0 1 3.57-.94 6.9 6.9 0 0 1 3.44.83 5.58 5.58 0 0 1 2.27 2.42 8.5 8.5 0 0 1 .81 3.9v12.1h-4.46v-11.4c0-1.28-.33-2.28-.99-2.99a3.5 3.5 0 0 0-2.73-1.07c-.8 0-1.5.17-2.12.52-.62.33-1.1.83-1.46 1.47a4.9 4.9 0 0 0-.52 2.34ZM105 37.58V18.57h4.47v19H105Zm2.25-21.71a2.6 2.6 0 0 1-1.83-.7 2.28 2.28 0 0 1-.76-1.73c0-.67.25-1.25.76-1.72a2.57 2.57 0 0 1 1.83-.71c.71 0 1.32.23 1.82.71.51.47.77 1.05.77 1.72 0 .67-.26 1.25-.77 1.72-.5.47-1.1.7-1.82.7Zm6.46 21.7v-19h4.32v3.17h.2a4.75 4.75 0 0 1 4.67-3.45 10.23 10.23 0 0 1 1.6.13v4.12a8.26 8.26 0 0 0-2.07-.26 4.5 4.5 0 0 0-2.19.53 3.88 3.88 0 0 0-2.07 3.6v11.17h-4.46Zm17.88-25.34v25.35h-4.47V12.23h4.47Z"/>
  <path fill="#006B99" fill-rule="evenodd" d="M23.6 7.13a16.72 16.72 0 0 0-14.81.98L6.54 9.4l-2.6-4.5L6.2 3.6a21.91 21.91 0 0 1 27.5 4.54 22.09 22.09 0 0 1-6.8 34.33 23.85 23.85 0 0 1-9.72 2.28c-2.8 0-4.43-.42-6.58-1.31a17.18 17.18 0 0 1-9.3-9.34 17.3 17.3 0 0 1 9.3-22.53 17.12 17.12 0 0 1 22.45 9.33c.37.9.67 1.83.88 2.77A16.91 16.91 0 0 0 23.6 7.13ZM6.8 33.54a10.6 10.6 0 0 1 10.58-10.06A10.6 10.6 0 0 1 27.9 32.9 12.1 12.1 0 0 0 25.65 19 11.98 11.98 0 0 0 6.11 32.12c.2.49.43.96.7 1.42Zm15.97.57a5.4 5.4 0 1 1-10.8.02 5.4 5.4 0 0 1 10.8-.02Z" clip-rule="evenodd"/>
</svg>
